X: 18016
T: Hugo's
R: jig
M: 6/8
K: Dminor
|:~D3 d2^c|dcB ~G3|A2B AGF|~E3 GFE|~D3 d2e|
fed ~B3|1 ~A3 AGF|ABA GFE:|2 ~a3 agf|gfe dag||
fed f2f|agf ~e3|fag fed|~^c3 ~B3|
fed a2a|aba gab|c'2b agf|gfe dag|
fed f2f|agf ~e3|fag fed|~^c3 AGF|
~D3 d2^c|dcB ~G3|A2B AGF|~E3 GFE||

